!!!!SEGMENT: pl-sa--95-a-ii-35--010_anonim--domum-tuam-sanctum-numen.krn
!!!cenid: 17xx:1461
!!!COM: Anonim
!!!COM-rismID: pe30004985
!!!CDT:
!!!CNT:
!!!OTL: Domum tuam sanctum numen
!!!PDT:
!!!AGN:
!!!YEC: Copyright 2022 Narodowy Instytut Fryderyka Chopina (https://polishscores.org)
!!!YEM: License CC-BY-4.0 (https://creativecommons.org/licenses/by/4.0)
!!!SMS-siglum: PL-SA
!!!SMS-shelfmark: 95/A II 35
!!!SMS-shelfwork: 010 W
!!!SMS-variant:
!!!SMS-altvar:
!!!NIFC-rismSourceID: 1001041199
!!!NIFC-rismChildID: 1001041199
!!!NIFC-islandoraID: none
!!!URL-pdf-islandora:
!!!URL-scan: https://bc.bdsandomierz.pl/dlibra/publication/1376/edition/1344/content @EN{Scan in the Sandomierz Diocese Digital Library} @PL{Skany w portalu Cyfrowa Biblioteka Diecezjalna w Sandomierzu}
!!!IIIF:
!!!ONB-nifc: Nr 10
!!!AIN: 1 bass 1 organ 2 violn
!!!key: C
**kern	**kern	**kern	**kern	**text
*part4	*part3	*part2	*part1	*
*staff4	*staff3	*staff2	*staff1	*
*I"Organo	*I"Violino 2do	*I"Violino Imo.	*I"[Baſso]	*
*I'org	*I'vl II	*I'vl I	*I'[B]	*
*Iorgan	*Ivioln	*Ivioln	*Ibass	*
*ICklav	*ICstr	*ICstr	*ICvox	*
*clefF4	*clefG2	*clefG2	*clefF4	*
*k[]	*k[]	*k[]	*k[]	*
*C:	*C:	*C:	*C:	*
*M2/4	*M2/4	*M2/4	*M2/4	*
=1	=1	=1	=1	=1
!	!	!LO:TX:t=P:problem=brak oznaczenia tempa	!LO:TX:t=P:problem=UWAGA! problem #285	!
!LO:TX:t=P:problem=brak oznaczenia tempa	!LO:TX:t=P:problem=brak partii vl II [dodana ze względu na str. tytułową]	!LO:TX:t=P:global:problem=triola oznaczona liczbą i łukiem	!LO:TX:t=P:problem=brak oznaczenia tempa	!
4C/	2ryy	12cc\L	2r	.
.	.	12b\	.	.
.	.	12cc\J	.	.
4r	.	4g/	.	.
=2	=2	=2	=2	=2
4C/	2ryy	12e/L	2r	.
.	.	12d/	.	.
.	.	12e/J	.	.
4r	.	4c/	.	.
=3	=3	=3	=3	=3
4C/	2ryy	12cc\L	2r	.
.	.	12b\	.	.
.	.	12cc\J	.	.
4r	.	4g/	.	.
=4	=4	=4	=4	=4
4C/	2ryy	12e/L	2r	.
.	.	12d/	.	.
.	.	12e/J	.	.
4r	.	4c/	.	.
=5	=5	=5	=5	=5
4F\	2ryy	12a/L	2r	.
.	.	12g/	.	.
.	.	12a/J	.	.
4r	.	4f/	.	.
=6	=6	=6	=6	=6
4C/	2ryy	12g/L	2r	.
.	.	12f/	.	.
.	.	12g/J	.	.
4r	.	4e/	.	.
=7	=7	=7	=7	=7
!LO:TX:b:t=|:problem	!	!	!	!
4GG/	2ryy	12f/L	2r	.
.	.	12e/	.	.
.	.	12f/J	.	.
4r	.	4d/	.	.
=8	=8	=8	=8	=8
4C/	2ryy	12e/L	2r	.
.	.	12d/	.	.
.	.	12e/J	.	.
4r	.	4c/	.	.
!	!	!LO:LB:g=original	!	!
=9	=9	=9	=9	=9
4F\	2ryy	12aa\L	2r	.
.	.	12gg\	.	.
.	.	12aa\J	.	.
4r	.	4ff\	.	.
=10	=10	=10	=10	=10
4C/	2ryy	12gg\L	2r	.
.	.	12ff\	.	.
.	.	12gg\J	.	.
4r	.	4ee\	.	.
=11	=11	=11	=11	=11
!	!	!LO:TX:t=P:problem=triola bez numeru i łuku	!	!
4G\	2ryy	12ff\L	2r	.
.	.	12ee\	.	.
.	.	12ff\J	.	.
4r	.	4dd\	.	.
=12	=12	=12	=12	=12
4C/	2ryy	12ee\L	2r	.
.	.	12dd\	.	.
.	.	12ee\J	.	.
4r	.	4cc\	.	.
=13	=13	=13	=13	=13
!LO:SIC:s=4D	!	!LO:TX:t=P:problem=triola bez numeru i łuku	!	!
4C/	2ryy	12ff#X\L	2r	.
.	.	12gg\	.	.
.	.	12aa\J	.	.
4r	.	4dd\	.	.
=14	=14	=14	=14	=14
4D/	2ryy	12cc\L	2r	.
.	.	12dd\	.	.
.	.	12ee\J	.	.
4r	.	4a/	.	.
=15	=15	=15	=15	=15
4D/	2ryy	12f#X/L	2r	.
.	.	12g/	.	.
.	.	12a/J	.	.
4r	.	4d/	.	.
=16	=16	=16	=16	=16
4D/	2ryy	12cc\L	2r	.
.	.	12b\	.	.
.	.	12cc\J	.	.
4r	.	4a/	.	.
!LO:LB:g=original	!	!	!	!
=17	=17	=17	=17	=17
4G\	2ryy	12b/L	2r	.
.	.	12a/	.	.
.	.	12b/J	.	.
4r	.	4g/	.	.
!	!	!LO:LB:g=original	!	!
=18	=18	=18	=18	=18
4C/	2ryy	12ee\L	2r	.
.	.	12ff-\	.	.
.	.	12gg\J	.	.
4r	.	4cc\	.	.
=19	=19	=19	=19	=19
4E\	2ryy	12b-X/L	2r	.
.	.	12a/	.	.
.	.	12b-/J	.	.
4r	.	4g/	.	.
=20	=20	=20	=20	=20
4E\	2ryy	12ee\L	2r	.
.	.	12ff\	.	.
.	.	12gg\J	.	.
4r	.	4b-X/	.	.
=21	=21	=21	=21	=21
4F\	2ryy	12a/L	2r	.
.	.	12g/	.	.
.	.	12a/J	.	.
4r	.	4f/	.	.
=22	=22	=22	=22	=22
4F\	2ryy	4.aa\	2r	.
4r	.	.	.	.
.	.	8gg\	.	.
=23	=23	=23	=23	=23
4F\	2ryy	8ff\L	2r	.
.	.	8ee\	.	.
4r	.	8dd\	.	.
.	.	8cc\J	.	.
=24	=24	=24	=24	=24
4G\	2ryy	4.b/	2r	.
4r	.	.	.	.
.	.	8a/	.	.
=25	=25	=25	=25	=25
4G\	2ryy	8g/L	2r	.
.	.	8f/	.	.
4r	.	8e/	.	.
.	.	8d/J	.	.
=26	=26	=26	=26	=26
8C/L	2ryy	8c/L	2r	.
8E/	.	8cc\J	.	.
8G/	.	8G/L	.	.
8GG/J	.	8b\J	.	.
!	!	!LO:LB:g=original	!	!
=27	=27	=27	=27	=27
!	!	!	!LO:TX:t=P:global:problem=triola oznaczona liczbą i łukiem	!
4C/	2ryy	4cc\	12c\L	Do-
.	.	.	12B\	.
.	.	.	12c\J	.
4r	.	4r	4G\	-mum
=28	=28	=28	=28	=28
4C/	2ryy	4cc\	12E\L	tu-
.	.	.	12D\	.
.	.	.	12E\J	.
4r	.	4r	4C/	-am
=29	=29	=29	=29	=29
!	!	!LO:TX:a:t=1	!	!
4C/	2ryy	2r	12c\L	ſan-
.	.	.	12B\	.
.	.	.	12c\J	.
4r	.	.	4G\	-ct(um)
=30	=30	=30	=30	=30
4C/	2ryy	4cc\	12E\L	nu-
.	.	.	12D\	.
.	.	.	12E\J	.
4r	.	4r	4C/	-men
=31	=31	=31	=31	=31
4F\	2ryy	4ff\	12A\L	in
.	.	.	12G\	.
.	.	.	12A\J	.
4r	.	4r	4F\	quae
=32	=32	=32	=32	=32
4C/	2ryy	4ee\	12G\L	est
.	.	.	12F\	.
.	.	.	12G\J	.
4r	.	4r	4E\	ſa-
!	!	!	!LO:LB:g=original	!
=33	=33	=33	=33	=33
4GG/	2ryy	4dd\	12F\L	-lu-
.	.	.	12E\	.
.	.	.	12F\J	.
4r	.	4r	4D/	-tis
!LO:LB:g=original	!	!	!	!
=34	=34	=34	=34	=34
4C/	2ryy	4cc\	12E\L	lu-
.	.	.	12D\	.
.	.	.	12E\J	.
4r	.	4r	4C/	-men
=35	=35	=35	=35	=35
4F\	2ryy	4ff\	12A\L	in
.	.	.	12G\	.
.	.	.	12A\J	.
4r	.	4r	4F\	quae
=36	=36	=36	=36	=36
4C/	2ryy	4ee\	12G\L	est
.	.	.	12F\	.
.	.	.	12G\J	.
4r	.	4r	4E\	ſa-
=37	=37	=37	=37	=37
4GG/	2ryy	4dd\	12F\L	-lu-
.	.	.	12E\	.
.	.	.	12F\J	.
4r	.	4r	4D/	-tis
=38	=38	=38	=38	=38
4C/	2ryy	4cc\	12E\L	lu-
.	.	.	12D\	.
.	.	.	12E\J	.
4r	.	4r	4C/	-men
=39	=39	=39	=39	=39
8D\L	2ryy	2r	4.A\	om-
8E\	.	.	.	.
8F#X\	.	.	.	.
8D\J	.	.	8F#X\	-nis
=40	=40	=40	=40	=40
4G\	2ryy	2r	4G\	de-
4GG/	.	.	8BB/L	-cet
.	.	.	8C/J	.
=41	=41	=41	=41	=41
8D/L	2ryy	2r	4.D/	ſan-
8C/	.	.	.	.
8D/	.	.	.	.
8DD/J	.	.	8D/	-cti-
!	!	!	!LO:LB:g=original	!
=42	=42	=42	=42	=42
4GG/	2ryy	2r	12G\L	-tas
!	!	!	!LO:SIC:s=8F#	!
.	.	.	12F\	.
.	.	.	12G\J	.
4r	.	.	8D\L	.
.	.	.	8G\J	.
=43	=43	=43	=43	=43
4D/	2ryy	2r	12A\L	.
.	.	.	12G\	.
.	.	.	12A\J	.
4r	.	.	8D\L	.
.	.	.	8A\J	.
=44	=44	=44	=44	=44
4G\	2ryy	2r	12B\L	.
.	.	.	12A\	.
.	.	.	12B\J	.
4r	.	.	8D\L	.
.	.	.	8B\J	.
=45	=45	=45	=45	=45
4A\	2ryy	2r	12c\L	.
.	.	.	12B\	.
.	.	.	12c\J	.
4r	.	.	8D\L	.
.	.	.	8c\J	.
=46	=46	=46	=46	=46
8G\L	2ryy	2r	4d\	.
8A\	.	.	.	.
8B\	.	.	4r	.
8A\J	.	.	.	.
=47	=47	=47	=47	=47
8G\L	2ryy	2r	4.G\	om-
8F#X\	.	.	.	.
8E\	.	.	.	.
8D\J	.	.	8F#X\	-nis
!LO:LB:g=original	!	!	!	!
=48	=48	=48	=48	=48
4C/	2ryy	2r	4E\	de-
8BB/L	.	.	8D\L	-cet
8C/J	.	.	8E\J	.
=49	=49	=49	=49	=49
8D/L	2ryy	2r	4.D/	ſan-
8C/	.	.	.	.
8D/	.	.	.	.
8DD/J	.	.	8D/	-cti-
=50	=50	=50	=50	=50
4GG/	2ryy	2r	4GG/	-tas
4r	.	.	4r	.
=51	=51	=51	=51	=51
4C/	2ryy	12ee\L	2r	.
.	.	12ff\	.	.
.	.	12gg\J	.	.
4r	.	4cc\	.	.
=52	=52	=52	=52	=52
4E\	2ryy	12b-X\L	2r	.
.	.	12a\	.	.
.	.	12b-\J	.	.
4r	.	4g/	.	.
!	!	!LO:LB:g=original	!	!
=53	=53	=53	=53	=53
4E\	2ryy	12ee\L	2r	.
.	.	12ff\	.	.
.	.	12gg\J	.	.
4r	.	4b-X/	.	.
=54	=54	=54	=54	=54
4F\	2ryy	12a/L	2r	.
.	.	12g/	.	.
.	.	12a/J	.	.
4r	.	4f/	.	.
=55	=55	=55	=55	=55
4F\	2ryy	4.aa\	2r	.
4r	.	.	.	.
.	.	8gg\	.	.
=56	=56	=56	=56	=56
4F\	2ryy	8ff\L	2r	.
.	.	8ee\	.	.
4r	.	8dd\	.	.
.	.	8cc\J	.	.
=57	=57	=57	=57	=57
4G\	2ryy	4.b/	2r	.
4r	.	.	.	.
.	.	8a/	.	.
=58	=58	=58	=58	=58
4G\	2ryy	8g/L	2r	.
.	.	8f/	.	.
4r	.	8e/	.	.
.	.	8d/J	.	.
=59	=59	=59	=59	=59
8C\L	2ryy	8c/L	2r	.
!	!	!	!LO:LB:g=original	!
8E\	.	8cc\J	.	.
8G\	.	8G/L	.	.
8GG/J	.	8b\J	.	.
=60	=60	=60	=60	=60
4C/	2ryy	4cc\	12c\L	Do-
.	.	.	12B\	.
.	.	.	12c\J	.
4r	.	4r	4G\	-mum
=61	=61	=61	=61	=61
4C/	2ryy	4cc\	12E\L	tu-
.	.	.	12D\	.
.	.	.	12E\J	.
4r	.	4r	4C/	-am
=62	=62	=62	=62	=62
!	!	!LO:TX:a:t=1	!	!
4C/	2ryy	2r	12c\L	ſan-
!	!	!LO:LB:g=original	!	!
.	.	.	12B\	.
.	.	.	12c\J	.
4r	.	.	4G\	-ct(um)
=63	=63	=63	=63	=63
4C/	2ryy	4cc\	12E\L	nu-
.	.	.	12D\	.
.	.	.	12E\J	.
4r	.	4r	4C/	-men
!LO:LB:g=original	!	!	!	!
=64	=64	=64	=64	=64
4F\	2ryy	4ff\	12A\L	in
.	.	.	12G\	.
.	.	.	12A\J	.
4r	.	4r	4F\	quae
=65	=65	=65	=65	=65
4C/	2ryy	4ee\	12G\L	est
.	.	.	12F\	.
.	.	.	12G\J	.
4r	.	4r	4E\	ſa-
=66	=66	=66	=66	=66
4GG/	2ryy	4dd\	12F\L	-lu-
.	.	.	12E\	.
.	.	.	12F\J	.
4r	.	4r	4D/	-tis
=67	=67	=67	=67	=67
4C/	2ryy	4cc\	12E\L	nu-
.	.	.	12D\	.
.	.	.	12E\J	.
4r	.	4r	4C/	-men
=68	=68	=68	=68	=68
4F\	2ryy	4ff\	12A\L	in
.	.	.	12G\	.
.	.	.	12A\J	.
4r	.	4r	4F\	quae
!	!	!	!LO:LB:g=original	!
=69	=69	=69	=69	=69
4C/	2ryy	4ee\	12G\L	eſt
.	.	.	12F\	.
.	.	.	12G\J	.
4r	.	4r	4E\	ſa-
=70	=70	=70	=70	=70
4GG/	2ryy	4dd\	12F\L	-lu-
.	.	.	12E\	.
.	.	.	12F\J	.
4r	.	4r	4D\	-tis
=71	=71	=71	=71	=71
4C/	2ryy	4cc\	12E\L	lu-
.	.	.	12D\	.
.	.	.	12E\J	.
4r	.	4r	4C/	-men
=72	=72	=72	=72	=72
8A\L	2ryy	2r	4.A\	om-
8G\	.	.	.	.
8F#X\	.	.	.	.
8D\J	.	.	8F#X\	-nis
=73	=73	=73	=73	=73
4G\	2ryy	2r	4G\	de-
8BB/L	.	.	8BB/L	-cet
8C/J	.	.	8C/J	.
=74	=74	=74	=74	=74
8D/L	2ryy	2r	4.D/	ſan-
8C/	.	.	.	.
8D/	.	.	.	.
8DD/J	.	.	8D/	-cti-
=75	=75	=75	=75	=75
4GG/	2ryy	2r	12G\L	-tas
.	.	.	12F#X\	.
.	.	.	12G\J	.
4r	.	.	8D\L	.
.	.	.	8G\J	.
=76	=76	=76	=76	=76
4D/	2ryy	2r	12A\L	.
.	.	.	12G\	.
.	.	.	12A\J	.
4r	.	.	8D\L	.
.	.	.	8A\J	.
=77	=77	=77	=77	=77
4G\	2ryy	2r	12B\L	.
.	.	.	12A\	.
.	.	.	12B\J	.
4r	.	.	8D\L	.
.	.	.	8B\J	.
!	!	!	!LO:LB:g=original	!
=78	=78	=78	=78	=78
4A\	2ryy	2r	12c\L	.
.	.	.	12B\	.
.	.	.	12c\J	.
4r	.	.	8D\L	.
!LO:LB:g=original	!	!	!	!
.	.	.	8c\J	.
=79	=79	=79	=79	=79
8G\L	2ryy	2r	4d\	.
8A\	.	.	.	.
8B\	.	.	4r	.
8A\J	.	.	.	.
=80	=80	=80	=80	=80
8G\L	2ryy	2r	4.G\	om-
8F#X\	.	.	.	.
8E\	.	.	.	.
8D\J	.	.	8F#X\	-nis
=81	=81	=81	=81	=81
4C/	2ryy	2r	4E\	de-
8BB/L	.	.	8D\L	-cet
8C/J	.	.	8E\J	.
=82	=82	=82	=82	=82
8D/L	2ryy	2r	4.D/	ſan-
8C/	.	.	.	.
8D/	.	.	.	.
8DD/J	.	.	8D/	-cti-
=83	=83	=83	=83	=83
4GG/	2ryy	2r	4GG/	-tas
4r	.	.	4r	.
=84	=84	=84	=84	=84
4C/	2ryy	4ee\	12c\L	I-
.	.	.	12B\	.
.	.	.	12c\J	.
4r	.	4r	4G\	-bi
=85	=85	=85	=85	=85
4C/	2ryy	4cc\	12E\L	di-
.	.	.	12D\	.
.	.	.	12E\J	.
4r	.	4r	4C/	-gne
=86	=86	=86	=86	=86
!	!	!LO:TX:a:t=1	!	!
4C/	2ryy	2r	12c\L	a-
.	.	.	12B\	.
.	.	.	12c\J	.
4r	.	.	4G\	-do-
=87	=87	=87	=87	=87
4C/	2ryy	4cc\	12E\L	-ra-
.	.	.	12D\	.
.	.	.	12E\J	.
4r	.	4r	4C/	-mus
!	!	!	!LO:LB:g=original	!
=88	=88	=88	=88	=88
4F\	2ryy	4ff\	12A\L	mil-
.	.	.	12G\	.
.	.	.	12A\J	.
4r	.	4r	4F\	-le
=89	=89	=89	=89	=89
4C/	2ryy	4ee\	12G\L	hym-
.	.	.	12F\	.
.	.	.	12G\J	.
4r	.	4r	4E\	-nis
=90	=90	=90	=90	=90
4GG/	2ryy	4dd\	12F\L	ce-
.	.	.	12E\	.
.	.	.	12F\J	.
4r	.	4r	4D/	-le-
=91	=91	=91	=91	=91
4C/	2ryy	4cc\	12E\L	-bra-
.	.	.	12D\	.
.	.	.	12E\J	.
4r	.	4r	8C/L	.
.	.	.	8E/J	.
=92	=92	=92	=92	=92
4GG/	2ryy	2r	12D/L	.
.	.	.	12C/	.
.	.	.	12D/J	.
4r	.	.	8GG/L	.
!LO:LB:g=original	!	!	!	!
.	.	.	8D/J	.
=93	=93	=93	=93	=93
4C/	2ryy	2r	12E\L	.
.	.	.	12D\	.
.	.	.	12E\J	.
4r	.	.	8GG/L	.
.	.	.	8E\J	.
=94	=94	=94	=94	=94
4GG/	2ryy	2r	12F\L	.
.	.	.	12E\	.
.	.	.	12F\J	.
4r	.	.	8GG/L	.
.	.	.	8F\J	.
=95	=95	=95	=95	=95
4C/	2ryy	2r	4G\	-ris
4r	.	.	4GG/	.
=96	=96	=96	=96	=96
!LO:TX:t=P:problem=zbędne tt. 96-97	!	!LO:TX:t=P:problem=zbędne takty w org	!LO:TX:t=P:problem=zbędne takty w org	!
4GG/	2ryy	2ryy	2ryy	.
4r	.	.	.	.
=97	=97	=97	=97	=97
4GG/	2ryy	2ryy	2ryy	.
4r	.	.	.	.
=98	=98	=98	=98	=98
8C\L	2ryy	2r	4.c\	flo-
8D\	.	.	.	.
8E\	.	.	.	.
8C\J	.	.	8B\	-ret
!	!	!	!LO:LB:g=original	!
=99	=99	=99	=99	=99
8F\L	2ryy	2r	4.A\	om-
8E\	.	.	.	.
8F\	.	.	.	.
8D\J	.	.	8F\	-nis
=100	=100	=100	=100	=100
!LO:TX:t=P:problem=mixed beam	!	!	!	!
8G/L	2ryy	2r	4.G\	pi-
8F/	.	.	.	.
8G/	.	.	.	.
8GG/J	.	.	8GG/	-e-
=101	=101	=101	=101	=101
!LO:TX:t=P:problem=brak taktów nr 101-112	!	!	!	!
2ryy	2ryy	2r	4C/	-tas
.	.	.	4r	.
=102	=102	=102	=102	=102
2ryy	2ryy	2r	12A\L	mil-
.	.	.	12G\	.
.	.	.	12A\J	.
.	.	.	4F\	-le
=103	=103	=103	=103	=103
2ryy	2ryy	2r	12G\L	hym-
.	.	.	12F\	.
.	.	.	12G\J	.
.	.	.	4E\	-nis
=104	=104	=104	=104	=104
2ryy	2ryy	2r	12F\L	ce-
.	.	.	12E\	.
.	.	.	12F\J	.
.	.	.	4D/	-le-
=105	=105	=105	=105	=105
2ryy	2ryy	2r	12E\L	-bra-
.	.	.	12D\	.
.	.	.	12E\J	.
.	.	.	8GG/L	.
.	.	.	8E/J	.
=106	=106	=106	=106	=106
2ryy	2ryy	2r	12D/L	.
.	.	.	12C/	.
.	.	.	12D/J	.
.	.	.	8GG/L	.
.	.	.	8D/J	.
=107	=107	=107	=107	=107
2ryy	2ryy	2r	12E\L	.
.	.	.	12D\	.
.	.	.	12E\J	.
.	.	.	8GG/L	.
.	.	.	8E/J	.
!	!	!	!LO:LB:g=original	!
=108	=108	=108	=108	=108
2ryy	2ryy	2r	12F\L	.
.	.	.	12E\	.
.	.	.	12F\J	.
.	.	.	8GG/L	.
.	.	.	8F\J	.
=109	=109	=109	=109	=109
2ryy	2ryy	2r	4G\	-ris
.	.	.	4GG/	.
=110	=110	=110	=110	=110
2ryy	2ryy	2r	4.c\	flo-
.	.	.	8B\	-ret
=111	=111	=111	=111	=111
2ryy	2ryy	2r	4.A\	om-
.	.	.	8F\	-nis
=112	=112	=112	=112	=112
2ryy	2ryy	2r	4.G\	pi-
.	.	.	8GG/	-e-
=113	=113	=113	=113	=113
4C/	2ryy	12cc\L	4C/	-tas
.	.	12b\	.	.
.	.	12cc\J	.	.
4r	.	4g/	4r	.
=114	=114	=114	=114	=114
4C/	2ryy	12e/L	2r	.
.	.	12d/	.	.
.	.	12e/J	.	.
4r	.	4c/	.	.
=115	=115	=115	=115	=115
4C/	2ryy	12cc\L	2r	.
.	.	12b\	.	.
.	.	12cc\J	.	.
4r	.	4g/	.	.
=116	=116	=116	=116	=116
4C/	2ryy	12e/L	2r	.
.	.	12d/	.	.
.	.	12e/J	.	.
4r	.	4c/	.	.
=117	=117	=117	=117	=117
4F\	2ryy	12a/L	2r	.
.	.	12g/	.	.
.	.	12a/J	.	.
4r	.	4f/	.	.
=118	=118	=118	=118	=118
4C/	2ryy	12g/L	2r	.
.	.	12f/	.	.
.	.	12g/J	.	.
4r	.	4e/	.	.
!	!	!LO:LB:g=original	!	!
=119	=119	=119	=119	=119
4GG/	2ryy	12f/L	2r	.
.	.	12e/	.	.
.	.	12f/J	.	.
4r	.	4d/	.	.
=120	=120	=120	=120	=120
4C/	2ryy	12e/L	2r	.
.	.	12d/	.	.
.	.	12e/J	.	.
4r	.	4c/	.	.
!LO:LB:g=original	!	!	!	!
=121	=121	=121	=121	=121
4F\	2ryy	12aa\L	2r	.
.	.	12gg\	.	.
.	.	12aa\J	.	.
4r	.	4ff\	.	.
=122	=122	=122	=122	=122
!	!	!LO:TX:t=P:problem=triola bez numeru i łuku	!	!
4C/	2ryy	12gg\L	2r	.
.	.	12ff\	.	.
.	.	12gg\J	.	.
4r	.	4ee\	.	.
=123	=123	=123	=123	=123
4G\	2ryy	12ff\L	2r	.
.	.	12ee\	.	.
.	.	12ff\J	.	.
4r	.	4dd\	.	.
=124	=124	=124	=124	=124
4C/	2ryy	12ee\L	2r	.
.	.	12dd\	.	.
.	.	12ee\J	.	.
4r	.	4cc\	.	.
=125	=125	=125	=125	=125
4D/	2ryy	12ff#X\L	2r	.
.	.	12gg\	.	.
.	.	12aa\J	.	.
4r	.	4dd\	.	.
=126	=126	=126	=126	=126
4D/	2ryy	12cc\L	2r	.
.	.	12dd\	.	.
.	.	12ee\J	.	.
4r	.	4a/	.	.
=127	=127	=127	=127	=127
4D/	2ryy	12f#X/L	2r	.
.	.	12g/	.	.
.	.	12a/J	.	.
4r	.	4d/	.	.
!	!	!LO:LB:g=original	!	!
=128	=128	=128	=128	=128
4D/	2ryy	12cc\L	2r	.
.	.	12b\	.	.
.	.	12cc\J	.	.
4r	.	4a/	.	.
=129	=129	=129	=129	=129
4G\	2ryy	12b/L	2r	.
.	.	12a/	.	.
.	.	12b/J	.	.
4r	.	4g/	.	.
=130	=130	=130	=130	=130
!	!	!LO:TX:t=P:problem=brak taktów nr 130-139	!	!
4C/	2ryy	2ryy	2r	.
4r	.	.	.	.
=131	=131	=131	=131	=131
4E\	2ryy	2ryy	2r	.
4r	.	.	.	.
=132	=132	=132	=132	=132
4E\	2ryy	2ryy	2r	.
4r	.	.	.	.
=133	=133	=133	=133	=133
4F\	2ryy	2ryy	2r	.
4r	.	.	.	.
=134	=134	=134	=134	=134
4F\	2ryy	2ryy	2r	.
4r	.	.	.	.
=135	=135	=135	=135	=135
4F\	2ryy	2ryy	2r	.
4r	.	.	.	.
=136	=136	=136	=136	=136
4G\	2ryy	2ryy	2r	.
4r	.	.	.	.
=137	=137	=137	=137	=137
4G\	2ryy	2ryy	2r	.
4r	.	.	.	.
=138	=138	=138	=138	=138
8C\L	2ryy	2ryy	2r	.
8E\	.	.	.	.
8G\	.	.	.	.
8GG/J	.	.	.	.
!LO:LB:g=original	!	!	!	!
=139	=139	=139	=139	=139
8C/L	2ryy	2ryy	2r	.
8D/	.	.	.	.
8E/	.	.	.	.
8D/J	.	.	.	.
=140	=140	=140	=140	=140
4C/	2ryy	12ee\L	2r	.
.	.	12ff\	.	.
.	.	12gg\J	.	.
4r	.	4cc\	.	.
=141	=141	=141	=141	=141
4E\	2ryy	12b-X/L	2r	.
.	.	12a/	.	.
.	.	12b-/J	.	.
4r	.	4g/	.	.
=142	=142	=142	=142	=142
4E\	2ryy	12ee\L	2r	.
.	.	12ff\	.	.
.	.	12gg\J	.	.
4r	.	4b-X/	.	.
=143	=143	=143	=143	=143
4F\	2ryy	12a/L	2r	.
.	.	12g/	.	.
.	.	12a/J	.	.
4r	.	4f/	.	.
=144	=144	=144	=144	=144
4F\	2ryy	4.aa\	2r	.
4r	.	.	.	.
.	.	8gg\	.	.
=145	=145	=145	=145	=145
4F\	2ryy	8ff\L	2r	.
.	.	8ee\	.	.
4r	.	8dd\	.	.
.	.	8cc\J	.	.
=146	=146	=146	=146	=146
4G\	2ryy	4.b/	2r	.
4r	.	.	.	.
.	.	8a/	.	.
!	!	!LO:LB:g=original	!	!
=147	=147	=147	=147	=147
4G\	2ryy	8g/L	2r	.
.	.	8f/	.	.
4r	.	8e/	.	.
.	.	8d/J	.	.
=148	=148	=148	=148	=148
8C\L	2ryy	8c/L	2r	.
8E\	.	8cc\J	.	.
8G\	.	8G/L	.	.
8GG/J	.	8b\J	.	.
=149	=149	=149	=149	=149
!	!	!	!LO:TX:t=P:problem=fermata nad pauzą wielotaktową	!
!LO:TX:b:t=finis	!	!LO:TX:t=P:problem=fermata above/below	!LO:TX:t=P:problem=fermata above/below	!
4C;/	2ryy	4cc;\	2r;	.
4r	.	4r	.	.
=150||	=150||	=150||	=150||	=150||
4AA/	2ryy	2r	4.A\	Ac-
4r	.	.	.	.
.	.	.	8A\	-ce-
=151	=151	=151	=151	=151
4AA/	2ryy	2r	4A\	-da-
4E\	.	.	4E\	-mus
=152	=152	=152	=152	=152
4AA/	2ryy	2r	4C/	er-
4GG#X/	.	.	4E/	-g[o]
!	!	!	!LO:LB:g=original	!
=153	=153	=153	=153	=153
4AA/	2ryy	2r	4C/	cun-
4r	.	.	4AA/	-cti
=154	=154	=154	=154	=154
4AA/	2ryy	2r	4A\	to-
4r	.	.	4A\	-to
=155	=155	=155	=155	=155
4A\	2ryy	2r	4.A\	pec-
4E\	.	.	.	.
.	.	.	8E\	-to-
=156	=156	=156	=156	=156
4C/	2ryy	2r	4AA/	-re
4BB/	.	.	4E\	com-
!LO:PB:g=original	!	!	!	!
=157	=157	=157	=157	=157
4AA/	2ryy	2r	4C/	-pun-
4r	.	.	4AA/	-cti
=158	=158	=158	=158	=158
4E\	2ryy	2r	4E\	et
4r	.	.	4E\	prae-
=159	=159	=159	=159	=159
4E\	2ryy	2r	4E\	-ce-
4AA/	.	.	4A\	-mur
=160	=160	=160	=160	=160
2F\	2ryy	2r	4.F\	ſu-
.	.	.	8F\	-per-
=161	=161	=161	=161	=161
4E\	2ryy	2r	4E\	-os
4r	.	.	4r	.
=162	=162	=162	=162	=162
2r	2ryy	12b/L	4E\	quan-
.	.	12a/	.	.
.	.	12b/J	.	.
.	.	4e/	4E\	-tu(m)
=163	=163	=163	=163	=163
2r	2ryy	12b/L	4E\	pla-
.	.	12a/	.	.
.	.	12b/J	.	.
.	.	4e/	4E\	-cet
!	!	!	!LO:LB:g=original	!
=164	=164	=164	=164	=164
2r	2ryy	12cc\L	4E\	tan-
.	.	12b\	.	.
.	.	12cc\J	.	.
.	.	8e/L	4E\	-tu(m)
.	.	8cc\J	.	.
=165	=165	=165	=165	=165
2r	2ryy	12b/L	4E\	da-
.	.	12a/	.	.
.	.	12b/J	.	.
.	.	4e/	4E\	-tur
=166	=166	=166	=166	=166
2r	2ryy	4g#X/	4E\	du(m)
.	.	4e/	8G#X\L	menſ
!	!	!LO:LB:g=original	!	!
.	.	.	8A\J	.
=167	=167	=167	=167	=167
2r	2ryy	12g#X/L	12B\L	no-
.	.	12f/	12A\	.
.	.	12g#/J	12B\J	.
.	.	4b/	4E\	-ſtra
=168	=168	=168	=168	=168
!	!	!	!LO:TX:t=P:problem=triola bez łuku i liczby	!
2r	2ryy	12a/L	12c\L	ce-
.	.	12g#X/	12B\	.
.	.	12a/J	12c\J	.
.	.	4cc\	4E\	-le-
=169	=169	=169	=169	=169
2r	2ryy	12g#X/L	12B\L	-bra-
.	.	12f/	12A\	.
.	.	12g#/J	12B\J	.
.	.	4b/	4E\	-tur
=170	=170	=170	=170	=170
4A\	2ryy	2r	4A\	cam-
4E\	.	.	4E\	-pos
=171	=171	=171	=171	=171
4F\	2ryy	2r	4.F\	ad
4D/	.	.	.	.
.	.	.	8D/	e-
=172	=172	=172	=172	=172
4E\	2ryy	2r	4.E\	-ly
4EE/	.	.	.	.
.	.	.	8E\	fi-
=173	=173	=173	=173	=173
4AA/	2ryy	2r	4AA/	-oſ
4r	.	.	4r	.
=174	=174	=174	=174	=174
2r	2ryy	12b/L	4E\	quan-
.	.	12a/	.	.
.	.	12b/J	.	.
.	.	4e/	4E\	-t[um]
!	!	!	!LO:LB:g=original	!
=175	=175	=175	=175	=175
2r	2ryy	12b/L	4E\	pla-
.	.	12a/	.	.
.	.	12b/J	.	.
.	.	4e/	4E\	-cet
=176	=176	=176	=176	=176
2r	2ryy	12cc\L	4E\	tan-
.	.	12b\	.	.
.	.	12cc\J	.	.
.	.	8e/L	4E\	-tu(m)
.	.	8cc/J	.	.
=177	=177	=177	=177	=177
2r	2ryy	12b/L	4E\	da-
.	.	12a/	.	.
.	.	12b/J	.	.
.	.	4e/	4E\	-tur
=178	=178	=178	=178	=178
2r	2ryy	4g#X/	4E\	du(m)
.	.	4e/	8G#X\L	menſ
!	!	!LO:LB:g=original	!	!
.	.	.	8A\J	.
=179	=179	=179	=179	=179
2r	2ryy	12g#X/L	12B\L	no-
.	.	12f/	12A\	.
.	.	12g#/J	12B\J	.
.	.	4b/	4E\	-stra
=180	=180	=180	=180	=180
2r	2ryy	12a/L	12c\L	ce-
.	.	12g#X/	12B\	.
.	.	12a/J	12c\J	.
.	.	4cc\	4E\	-le-
=181	=181	=181	=181	=181
2r	2ryy	12g#X/L	12B\L	-bra-
.	.	12f/	12A\	.
.	.	12g#/J	12B\J	.
.	.	4b/	4E\	-tur
=182	=182	=182	=182	=182
4A\	2ryy	2r	4A\	cam-
4E\	.	.	4E\	-pos
=183	=183	=183	=183	=183
4.F\	2ryy	2r	4.F\	ad
8D/	.	.	8D/	e-
=184	=184	=184	=184	=184
8E\L	2ryy	2r	4.E\	-li
8D\	.	.	.	.
8E\	.	.	.	.
8EE/J	.	.	8EE/	fi-
=185	=185	=185	=185	=185
!LO:TX:a:t=Da\nCapo	!	!LO:TX:a:t=Da Capo	!	!
4AA/	2ryy	2r	4AA/	-os
!	!	!	!LO:TX:a:t=Da\nCapo	!
4r	.	.	4r	.
==	==	==	==	==
*-	*-	*-	*-	*-
!!!system-decoration: [(s1)][(s2)]s3[(s4)]
!!!ENC: Andrzej Kubiczek
!!!END: 2020-12-09
!!!ENC: Julita Ruszuk
!!!END: 2022-03-30
